!! 00000] TT[WS
!!!OTL: Wuge fangyang
!!!ARE: Asia, China,ÿShanxi Linfen
!! Ethnic Group: Han
!! WI, 54 (1)
!!!SCT: J0058
!!!YEM: Copyright 1995, estate of Helmut Schaffrath.
**kern
*ICvox
*Ivox
*M2/4
*k[b-]
*F:
{8cc
16cc
16cc
8cc
8ff
=1
4cc
16g
16f
8e
=2
4f
8cc
16dd
16cc
=3
8b-
8cc
16g
16f
8e
=4
4c}
{16cc
16r
16dd
16cc
=5
16b-
16r
8cc
8g
16g
16f
=6
4e
16g
16r
16g
16b-
=7
4cc
4e
=8
16d
16c
8f
4c}
==
!!!AGN: Xiaodiao. Qingge
!!!ONB: ESAC (Essen Associative Code) Database: CHINA
!!!AMT: simple duple
!!!AIN: vox
!!!EED: Helmut Schaffrath
!!!EEV: 1.0
*-
